X:131
T:Scotch Tune. HA.130, A
M:C|
L:1/8
Q:1/4=140
S:Henry Atkinson’s original MS,Hartburn,N’umberland,1694.
O:England
A:Hartburn,Northumberland
H:1/8
Z:vmp.Chris Partington.Jan.2004
K:G
“_3 sharps in MS”G2B>c d3e/f/|gdcB A3B|c2c>d Bddg|B2(AG) G4||
B2d2 g3f|e2a2 f3f|(g/f/g/e/ g/f/g/e/) (g/f/g/e/ g/f/a/e/)|\
e3d d3g|
egdg cgBg|egdg cgBg|e2d>c B2(B/c/d)|B2(AG) G4|]

